X: 51
T: No_147_One_Bird.krn
%%abc-version 2.0
%%abcx-abcm2ps-target-version 5.9.1 (29 Sep 2008)
%%abc-creator hum2abc beta
%%abcx-conversion-date 2020/08/10 18:54:57
%%gracespace 0 6 6
%%humdrum-veritas 2203973408
%%humdrum-veritas-data 4084889645
%%linebreak <none>
%%barnumbers 0
L: 1/8
M: 2/4
%%staves {1 2}
V: 1 clef=bass
V: 2 clef=bass
K: Gb
[V:1] [K:clef=bass][M:2/4]E>E FE | 
[V:2] [K:clef=bass][M:2/4]G,,G,, G,,G,, | 
[V:1] E4 ||  
[V:2] z4 ||  
[V:1] [M:3/4]EDD2B,2 ||  
[V:2] [M:3/4]z6 ||  
[V:1] [M:2/4]D2ED | 
[V:2] [M:2/4]z4 | 
[V:1] B,>B,B,2- | 
[V:2] z4 | 
[V:1] B,4 | 
[V:2] z4 | 
[V:1] B,>D DB, | 
[V:2] z4 | 
[V:1] B,4 ||  
[V:2] z4 ||  
[V:1] [M:3/4]B,A,G,2E,2 ||  
[V:2] [M:3/4]z6 ||  
[V:1] [M:2/4]G,2A,G, | 
[V:2] [M:2/4]z4 | 
[V:1] E,>E,E,2- | 
[V:2] z4 | 
[V:1] E,4 | 
[V:2] z4 | 
[V:1] E,>G, G,E, | 
[V:2] z4 | 
[V:1] E,4 ||  
[V:2] z4 ||  
[V:1] [M:3/4]E,D,D,2B,,2 ||  
[V:2] [M:3/4]z6 ||  
[V:1] [M:2/4]D,2E,D, | 
[V:2] [M:2/4]z4 | 
[V:1] B,,>B,,B,,2- | 
[V:2] z4 | 
[V:1] B,,4 | 
[V:2] z4 | 
[V:1] B,>D DB, | 
[V:2] z4 | 
[V:1] B,4 ||  
[V:2] z4 ||  
[V:1] [M:3/4]B,A,G,2E,2 ||  
[V:2] [M:3/4]z6 ||  
[V:1] [M:2/4]G,2A,G, | 
[V:2] [M:2/4]z4 | 
[V:1] E,>E,E,2- | 
[V:2] z4 | 
[V:1] E,4 | 
[V:2] z4 | 
[V:1] E,>G, G,E, | 
[V:2] z4 | 
[V:1] E,4 ||  
[V:2] z4 ||  
[V:1] [M:3/4]E,D,D,2B,,2 ||  
[V:2] [M:3/4]z6 ||  
[V:1] [M:2/4]D,2E,D, | 
[V:2] [M:2/4]z4 | 
[V:1] B,,>B,,B,,2- | 
[V:2] z4 | 
[V:1] B,,4 |]  
[V:2] z4 |]  


